ES1T1/13/aimg/a5.svg

<svg clip-rule="evenodd" fill-rule="evenodd" viewBox="0 0 200 200" xmlns="http://www.w3.org/2000/svg"><path d="m289.814 153.667c-3.091.909-6.021 1.363-8.789 1.363-4.029 0-7.207-1.143-9.536-3.428-2.33-2.285-3.494-5.405-3.494-9.36 0-3.736 1.066-6.742 3.197-9.02s4.947-3.417 8.448-3.417c3.531 0 6.109 1.113 7.735 3.34 1.626 2.226 2.439 5.749 2.439 10.569h-14.964c.44 4.599 2.967 6.899 7.581 6.899 2.183 0 4.643-.505 7.383-1.516zm-15.052-13.623h8.658c0-4.116-1.326-6.174-3.977-6.174-2.696 0-4.256 2.058-4.681 6.174z" fill="none" stroke="#aae1fa" stroke-width="2" transform="matrix(4.16667 0 0 4.16667 -1062.1 -475.873)"/><path d="m.527-.018c-.069.02-.134.03-.195.03-.09 0-.161-.025-.212-.076-.052-.051-.078-.12-.078-.208 0-.083.024-.15.071-.2.047-.051.11-.076.188-.076s.136.024.172.074c.036.049.054.128.054.235h-.333c.01.102.066.153.169.153.048 0 .103-.011.164-.034zm-.335-.303h.193c0-.091-.03-.137-.089-.137-.06 0-.094.046-.104.137z" fill="#fff" fill-rule="nonzero" transform="matrix(187.50015 0 0 187.50015 46.67172 167.794182)"/></svg>

<?xml version="1.0" encoding="UTF-8" standalone="no"?>
<!DOCTYPE svg PUBLIC "-//W3C//DTD SVG 1.1//EN" "http://www.w3.org/Graphics/SVG/1.1/DTD/svg11.dtd">
<svg width="100%" height="100%" viewBox="0 0 200 200" version="1.1" xmlns="http://www.w3.org/2000/svg" xmlns:xlink="http://www.w3.org/1999/xlink" xml:space="preserve" xmlns:serif="http://www.serif.com/" style="fill-rule:evenodd;clip-rule:evenodd;">
    <g transform="matrix(4.16667,0,0,4.16667,-1062.1,-475.873)">
        <g>
            <path d="M289.814,153.667C286.723,154.576 283.793,155.03 281.025,155.03C276.996,155.03 273.818,153.887 271.489,151.602C269.159,149.317 267.995,146.197 267.995,142.242C267.995,138.506 269.061,135.5 271.192,133.222C273.323,130.944 276.139,129.805 279.64,129.805C283.171,129.805 285.749,130.918 287.375,133.145C289.001,135.371 289.814,138.894 289.814,143.714L274.85,143.714C275.29,148.313 277.817,150.613 282.431,150.613C284.614,150.613 287.074,150.108 289.814,149.097L289.814,153.667ZM274.762,140.044L283.42,140.044C283.42,135.928 282.094,133.87 279.443,133.87C276.747,133.87 275.187,135.928 274.762,140.044Z" style="fill:none;fill-rule:nonzero;stroke:rgb(170,225,250);stroke-width:2px;"/>
        </g>
        <g transform="matrix(45,0,0,45,266.105,154.48)">
            <path d="M0.527,-0.018C0.458,0.002 0.393,0.012 0.332,0.012C0.242,0.012 0.171,-0.013 0.12,-0.064C0.068,-0.115 0.042,-0.184 0.042,-0.272C0.042,-0.355 0.066,-0.422 0.113,-0.472C0.16,-0.523 0.223,-0.548 0.301,-0.548C0.379,-0.548 0.437,-0.524 0.473,-0.474C0.509,-0.425 0.527,-0.346 0.527,-0.239L0.194,-0.239C0.204,-0.137 0.26,-0.086 0.363,-0.086C0.411,-0.086 0.466,-0.097 0.527,-0.12L0.527,-0.018ZM0.192,-0.321L0.385,-0.321C0.385,-0.412 0.355,-0.458 0.296,-0.458C0.236,-0.458 0.202,-0.412 0.192,-0.321Z" style="fill:white;fill-rule:nonzero;"/>
        </g>
    </g>
</svg>
